bundle/image/components/hand/img/hand.svg

<svg width="196" height="260" viewBox="0 0 196 260" fill="none" xmlns="http://www.w3.org/2000/svg">
<path d="M147.49 151.46C147.49 151.46 173.07 115.1 188.97 133.28C204.87 151.46 160.04 209.09 149.57 222.36C137.13 238.12 116.31 256.29 102.47 256.29C94.17 256.29 68.9 256.29 59.91 256.29C36.35 256.29 3.01001 245.99 3.01001 200.54C3.01001 155.09 3.01001 71.47 3.01001 63.59C3.01001 55.71 12 46.62 20.29 46.62C28.59 46.62 36.88 53.89 36.88 58.13C36.88 58.13 37.57 42.98 37.57 38.13C37.57 33.28 43.79 21.57 56.7 21.57C65 21.57 74.9 28.44 74.9 36.92C74.9 32.07 74.9 25.41 74.9 18.74C74.9 12.07 80.43 2.98001 92.87 2.98001C105.31 2.98001 111.54 12.68 111.54 19.34C111.54 26.01 111.54 36.91 111.54 36.91C111.54 36.91 113.84 25.19 132.28 25.19C145.41 25.19 149.56 37.51 149.56 42.97C149.56 48.43 147.49 151.44 147.49 151.44V151.46Z" fill="white"/>
<path d="M36.8801 106.8C35.2201 106.8 33.8701 105.45 33.8701 103.79V56.53C33.8701 54.87 35.2201 53.52 36.8801 53.52C38.5401 53.52 39.8901 54.87 39.8901 56.53V103.79C39.8901 105.45 38.5401 106.8 36.8801 106.8Z" fill="#231814"/>
<path d="M74.6702 98.72C73.0102 98.72 71.6602 97.37 71.6602 95.71V34.51C71.6602 32.85 73.0102 31.5 74.6702 31.5C76.3302 31.5 77.6802 32.85 77.6802 34.51V95.71C77.6802 97.37 76.3302 98.72 74.6702 98.72Z" fill="#231814"/>
<path d="M111.77 98.72C110.11 98.72 108.76 97.38 108.76 95.71L108.64 35.27C108.64 33.61 109.98 32.26 111.64 32.25C113.3 32.25 114.65 33.59 114.65 35.26L114.77 95.7C114.77 97.36 113.43 98.71 111.77 98.72Z" fill="#231814"/>
<path d="M109.73 226.65C108.76 226.65 107.82 226.11 107.36 225.17C105.63 221.64 90.8498 190.48 104.92 182.79C105.35 182.55 105.89 182.27 106.51 181.94C114.43 177.72 135.47 166.51 147.13 148.63C147.92 147.41 149.56 147.07 150.78 147.86C152 148.65 152.34 150.29 151.55 151.51C139.15 170.53 117.24 182.2 108.99 186.59C108.38 186.91 107.87 187.19 107.45 187.42C99.2398 191.91 108.28 215.09 112.09 222.86C112.73 224.17 112.19 225.75 110.89 226.39C110.52 226.57 110.12 226.66 109.73 226.66V226.65Z" fill="#231814"/>
<path d="M26.1902 115.03C25.3602 115.03 24.5302 114.63 24.0202 113.9C23.1902 112.7 23.4902 111.06 24.6802 110.23C43.1102 97.44 67.0902 95.93 86.3602 94.72C87.8102 94.64 89.0602 95.73 89.1602 97.18C89.2502 98.63 88.1502 99.88 86.7002 99.98C68.0802 101.15 44.9202 102.61 27.7002 114.56C27.2402 114.88 26.7202 115.03 26.2002 115.03H26.1902Z" fill="#231814"/>
<path d="M102.47 259.31H59.91C51.14 259.31 34.41 257.83 20.85 247.9C7.02 237.77 0 221.84 0 200.55V63.6C0 53.89 10.43 43.62 20.29 43.62C25.38 43.62 30.51 45.94 34.25 49.02C34.41 44.87 34.56 40.37 34.56 38.15C34.56 31.51 42.37 18.58 56.7 18.58C61.98 18.58 67.72 20.9 71.89 24.66V18.77C71.89 10.98 78.4 0 92.87 0C107.34 0 114.55 11.25 114.55 19.37V27.41C118.08 24.6 123.62 22.22 132.28 22.22C147.46 22.22 152.57 36.49 152.57 43.01C152.57 47.54 151.18 117.47 150.67 142.69C156.88 135.63 167.34 125.77 177.63 125.22C182.87 124.95 187.45 126.99 191.23 131.31C199.01 140.21 195.92 156.52 181.76 181.17C174.39 194 164.35 208.49 151.92 224.23C138.58 241.13 117.41 259.31 102.46 259.31H102.47ZM20.3 49.64C13.76 49.64 6.03001 57.21 6.03001 63.6V200.55C6.03001 248.15 43.71 253.29 59.92 253.29H102.48C114.72 253.29 134.66 236.4 147.22 220.5C181.11 177.6 195.87 145.73 186.72 135.27C184.19 132.37 181.33 131.05 177.98 131.22C167.31 131.78 154.14 147.27 149.97 153.2C149.21 154.28 147.83 154.74 146.57 154.33C145.31 153.92 144.47 152.73 144.5 151.41C144.52 150.38 146.57 48.36 146.57 43C146.57 39.88 144.15 28.24 132.3 28.24C116.78 28.24 114.59 37.18 114.51 37.56C114.21 39.08 112.82 40.11 111.27 39.96C109.73 39.81 108.56 38.49 108.56 36.94V19.37C108.56 14.71 103.97 6.02 92.91 6.02C81.85 6.02 77.95 13.84 77.95 18.76V36.94C77.95 38.6 76.6 39.95 74.94 39.95C73.28 39.95 71.93 38.6 71.93 36.94C71.93 30.29 63.58 24.6 56.74 24.6C45.47 24.6 40.62 34.89 40.62 38.15C40.62 43.01 39.95 57.66 39.93 58.28C39.86 59.91 38.51 61.2 36.85 61.15C35.21 61.11 33.91 59.78 33.91 58.14C33.91 56.12 27.65 49.64 20.33 49.64H20.3Z" fill="#231814"/>
</svg>

<svg width="196" height="260" fill="none" xmlns="http://www.w3.org/2000/svg"><path d="M147.49 151.46s25.58-36.36 41.48-18.18c15.9 18.18-28.93 75.81-39.4 89.08-12.44 15.76-33.26 33.93-47.1 33.93H59.91c-23.56 0-56.9-10.3-56.9-55.75V63.59c0-7.88 8.99-16.97 17.28-16.97 8.3 0 16.59 7.27 16.59 11.51 0 0 .69-15.15.69-20s6.22-16.56 19.13-16.56c8.3 0 18.2 6.87 18.2 15.35V18.74c0-6.67 5.53-15.76 17.97-15.76 12.44 0 18.67 9.7 18.67 16.36v17.57s2.3-11.72 20.74-11.72c13.13 0 17.28 12.32 17.28 17.78 0 5.46-2.07 108.47-2.07 108.47v.02z" fill="#fff"/><path d="M36.88 106.8c-1.66 0-3.01-1.35-3.01-3.01V56.53c0-1.66 1.35-3.01 3.01-3.01 1.66 0 3.01 1.35 3.01 3.01v47.26c0 1.66-1.35 3.01-3.01 3.01zM74.67 98.72c-1.66 0-3.01-1.35-3.01-3.01v-61.2c0-1.66 1.35-3.01 3.01-3.01 1.66 0 3.01 1.35 3.01 3.01v61.2c0 1.66-1.35 3.01-3.01 3.01zM111.77 98.72c-1.66 0-3.01-1.34-3.01-3.01l-.12-60.44a3.02 3.02 0 0 1 3-3.02c1.66 0 3.01 1.34 3.01 3.01l.12 60.44a3.02 3.02 0 0 1-3 3.02zM109.73 226.65c-.97 0-1.91-.54-2.37-1.48-1.73-3.53-16.51-34.69-2.44-42.38.43-.24.97-.52 1.59-.85 7.92-4.22 28.96-15.43 40.62-33.31a2.642 2.642 0 0 1 3.65-.77c1.22.79 1.56 2.43.77 3.65-12.4 19.02-34.31 30.69-42.56 35.08-.61.32-1.12.6-1.54.83-8.21 4.49.83 27.67 4.64 35.44.64 1.31.1 2.89-1.2 3.53-.37.18-.77.27-1.16.27v-.01z" fill="#231814"/><path d="M26.19 115.03c-.83 0-1.66-.4-2.17-1.13-.83-1.2-.53-2.84.66-3.67 18.43-12.79 42.41-14.3 61.68-15.51 1.45-.08 2.7 1.01 2.8 2.46.09 1.45-1.01 2.7-2.46 2.8-18.62 1.17-41.78 2.63-59 14.58-.46.32-.98.47-1.5.47h-.01z" fill="#231814"/><path d="M102.47 259.31H59.91c-8.77 0-25.5-1.48-39.06-11.41C7.02 237.77 0 221.84 0 200.55V63.6c0-9.71 10.43-19.98 20.29-19.98 5.09 0 10.22 2.32 13.96 5.4.16-4.15.31-8.65.31-10.87 0-6.64 7.81-19.57 22.14-19.57 5.28 0 11.02 2.32 15.19 6.08v-5.89C71.89 10.98 78.4 0 92.87 0s21.68 11.25 21.68 19.37v8.04c3.53-2.81 9.07-5.19 17.73-5.19 15.18 0 20.29 14.27 20.29 20.79 0 4.53-1.39 74.46-1.9 99.68 6.21-7.06 16.67-16.92 26.96-17.47 5.24-.27 9.82 1.77 13.6 6.09 7.78 8.9 4.69 25.21-9.47 49.86-7.37 12.83-17.41 27.32-29.84 43.06-13.34 16.9-34.51 35.08-49.46 35.08h.01zM20.3 49.64c-6.54 0-14.27 7.57-14.27 13.96v136.95c0 47.6 37.68 52.74 53.89 52.74h42.56c12.24 0 32.18-16.89 44.74-32.79 33.89-42.9 48.65-74.77 39.5-85.23-2.53-2.9-5.39-4.22-8.74-4.05-10.67.56-23.84 16.05-28.01 21.98a3.017 3.017 0 0 1-3.4 1.13c-1.26-.41-2.1-1.6-2.07-2.92.02-1.03 2.07-103.05 2.07-108.41 0-3.12-2.42-14.76-14.27-14.76-15.52 0-17.71 8.94-17.79 9.32a2.989 2.989 0 0 1-3.24 2.4c-1.54-.15-2.71-1.47-2.71-3.02V19.37c0-4.66-4.59-13.35-15.65-13.35s-14.96 7.82-14.96 12.74v18.18c0 1.66-1.35 3.01-3.01 3.01-1.66 0-3.01-1.35-3.01-3.01 0-6.65-8.35-12.34-15.19-12.34-11.27 0-16.12 10.29-16.12 13.55 0 4.86-.67 19.51-.69 20.13a2.988 2.988 0 0 1-3.08 2.87 3.005 3.005 0 0 1-2.94-3.01c0-2.02-6.26-8.5-13.58-8.5h-.03z" fill="#231814"/></svg>
